X: 16
T:Staten Island
M:4/4
L:1/8
R:Rant
N:http://www.lesession.co.uk
Z:Steve Mansfield 1998-2001
K:D
AG | FDFG A2 A2 | dfed dcBA | B2 GB A2 FA | G2 E2 E2 AG | 
FDFG A2 A2 | dfed dcBA | d2 d2 efge |f2 d2 d2 :: fg | 
a2 fa g2 eg | f2 df ec A2 | =c2 =c2 efge | =c2 =c2 efge | 
agfa gfeg | fedf ec A2 | d2 d2 efge | f2 d2 d2 :|
%
% Ceilidh Special Sets 
%
<end>
<start>
